resources/svg/knife-line.svg

<svg fill="currentColor" viewBox="0 0 24 24" xmlns="http://www.w3.org/2000/svg"><path d="M4.34315 1.4082L22.3744 19.4394C22.9602 20.0252 22.9602 20.975 22.3744 21.5607C21.7886 22.1465 20.8388 22.1465 20.253 21.5607L15.6569 16.9646L12.1213 20.5001L4.34315 12.7219C1.2779 9.65666 1.22006 4.72285 4.16964 1.58709L4.34315 1.4082ZM4.58437 4.47838L4.5329 4.58823C3.56416 6.72709 3.91772 9.315 5.58066 11.1234L5.75736 11.3077L12.1207 17.6716L14.9491 14.8431L4.58437 4.47838Z"/></svg>

<svg xmlns="http://www.w3.org/2000/svg" viewBox="0 0 24 24" fill="currentColor">
    <g>
        <path fill="none" d="M0 0h24v24H0z"/>
        <path fill-rule="nonzero" d="M4.342 1.408L22.373 19.44a1.5 1.5 0 0 1-2.121 2.122l-4.596-4.597L12.12 20.5l-7.778-7.778a8 8 0 0 1-.174-11.135l.174-.179zm.241 3.07l-.051.11a6.005 6.005 0 0 0 1.047 6.535l.177.185 6.363 6.363 2.829-2.828L4.583 4.478z"/>
    </g>
</svg>
